X: 6
T: Miller's Maggot, The
Z: Connor Hickey
S: https://thesession.org/tunes/333#setting48774
R: jig
M: 6/8
L: 1/8
K: Gmaj
M:12/8
|:G2AB2AB2A BGE|G2AB2A Bde dBA|
G2AB2AB2A BGE|1 gfe dBA Bde dBA:|2 gfe dBA Bee dBG||
|:e2fg2ed2B BAG|e2f gfg aga bge|
e2fg2ed2B BAG|A2B cBA Bee dBA:|

%-------------------- TUNE SEPARATOR --------------------%

